X:1
T:Dig vil jeg elske
T:(Salmer og Aandelige Sange, no.9)
T:Carl Nielsen (FS83/9)
T:H. Egede Glahn
T:Dig vil jeg elske (Salmer og Aandelige Sange, no.9)
T:Copyright (c) 2006 by Choral Public Domain Library (http://www.cpdl.org). Edition may be freely distributed, duplicated, performed or recorded.
T:Copyright (c) 2006 by Choral Public Domain Library (http://www.cpdl.org). Edition may be freely distributed, duplicated, performed or recorded.
T:Copyright (c) 2006 by Choral Public Domain Library (http://www.cpdl.org). Edition may be freely distributed, duplicated, performed or recorded.
T:Copyright (c) 2006 by Choral Public Domain Library (http://www.cpdl.org). Edition may be freely distributed, duplicated, performed or recorded.
C:Carl Nielsen (FS83/9)
Z:H. Egede Glahn
Z:Copyright (c) 2006 by Choral Public Domain Library (http://www.cpdl.org).
Z:Edition may be freely distributed, duplicated, performed or recorded.
%%score [ 1 2 3 4 ]
L:1/8
M:4/4
K:G
V:1 treble nm="S." snm="S."
V:2 treble nm="A." snm="A."
V:3 treble-8 transpose=-12 nm="T." snm="T."
V:4 bass nm="B." snm="B."
V:1
 B2 GF E2 D2 | G3 A B2 G2 | c2 BA e2 B2 | A2 G2 F4 | G2 AF B2 A2 | d3 A G2 E2 | F2 GA B2 G2 | %7
w: Dig vil jeg el- ske,|du min Styr- ke,|du gi- ver Hjer- tet|Fred og Trøst,|dig vil jeg ved min|Ger- ning dyr- ke,|ved hver en Læng- sel|
 (FG) E2 D4 | G2 FE D2 G2 | A2 (GA) !fermata!B2 G2 | c4 B4 | A2 (GF) !fermata!G4 |] %12
w: i _ mit Bryst,|dig vil jeg el- ske,|Frel- ser _ min! O|Je- sus,|kald mig _ din!|
"^Dig vil jeg elske, du min Styrke,du giver Hjertet Fred og Trøst,dig vil jeg ved min Gerning dyrke,ved hver en Længsel i mit Bryst,dig vil jeg elske, Frelser min!O Jesus, kald mig din!Dig vil jeg elske, du er Livet,og fører mig paa Livets Vej,dig vil jeg elske, du har givetmig Lyset, det, som slukkes ej,dig vil jeg elske, thi dit Blodfor mig du flyde lod.Saa lang en Tid var du mig fremmed,du, som dog først mig havde kær;langt borte ledte jeg om Hjemmet,som var med dig mig ganske nær,thi Hjemmets Kærlighed og Freder der, hvor du er med.Forkast da Barnet ej, som kommertil Hjemmet paa sin trætte Fod,og som i Verdens korte Sommertrods al dens Pragt dog nu forstod,at kun i din den faste Borg,faar Sjælen slukt sin Sorg.Dig vil jeg elske og tilbede,min Herre Gud og Broder kær!er Verden end med Spot til Rede,og skal jeg Nød kun friste her,dig vil jeg elske, Frelser min!O Jesus, kald mig din!                    Hans Egede Glahn (1814-1898)                    (after Angelus Silesius (1624-1677))""^1.2.3.4.5." z8 |] %13
w: |
V:2
 D2 DD C2 B,2 | B,2 D2 D2 E2 | E2 FF G2 G2 | F2 E2 ^D4 | B,2 =DD D2 F2 | F2 D2 E2 ^C2 | %6
w: Dig vil jeg el- ske,|du min Styr- ke,|du gi- ver Hjer- tet|Fred og Trøst,|dig vil jeg ved min|Ger- ning dyr- ke,|
 D2 EF D2 E2 | (ED) ^C2 D4 | B,2 =CC B,2 B,2 | C2 E2 !fermata!^D2 B,2 | E4 =D4 | %11
w: ved hver en Læng- sel|i _ mit Bryst,|dig vil jeg el- ske,|Frel- ser min! O|Je- sus,|
 D2 D2 !fermata!D4 |] z8 |] %13
w: kald mig din!||
V:3
 B2 BB G2 G2 | G2 F2 G2 B2 | c2 dd e2 d2 | d2 B2 B4 | G2 FA B2 ^c2 | d2 A2 B2 A2 | A2 dd G2 B2 | %7
w: Dig vil jeg el- ske,|du min Styr- ke,|du gi- ver Hjer- tet|Fred og Trøst,|dig vil jeg ved min|Ger- ning dyr- ke,|ved hver en Læng- sel|
 A2 A2 F4 | D2 AA F2 G2 | E2 E2 !fermata!F2 G2 | (G2 A4) G2 | (GF)(GA) !fermata!B4 |] z8 |] %13
w: i mit Bryst,|dig vil jeg el- ske,|Frel- ser min! O|Je- * sus,|kald _ mig _ din!||
V:4
 G,,2 B,,B,, C,2 G,2 | E,2 D,2 G,2 E,2 | A,2 D,D, C,2 G,2 | D,2 E,2 B,,4 | E,2 D,D, G,2 F,2 | %5
w: Dig vil jeg el- ske,|du min Styr- ke,|du gi- ver Hjer- tet|Fred og Trøst,|dig vil jeg ved min|
 B,2 F,2 E,2 A,2 | D,2 D,D, G,2 E,2 | A,2 A,,2 D,4 | G,,2 A,,A,, B,,2 E,2 | %9
w: Ger- ning dyr- ke,|ved hver en Læng- sel|i mit Bryst,|dig vil jeg el- ske,|
 A,,2 C,2 !fermata!B,,2 E,2 | (C,2 A,,2) (B,,2 C,2) | D,2 D,2 !fermata!G,,4 |] z8 |] %13
w: Frel- ser min! O|Je- * sus, _|kald mig din!||

